chains/lisk/logo.svg

<svg width="130" height="146" viewBox="0 0 130 146" fill="none" xmlns="http://www.w3.org/2000/svg">
<path d="M64.9868 0L50.2153 24.1424L98.5519 102.836L58.0833 146H92.3305L130 105.887L64.9868 0Z" fill="black"/>
<path d="M49.1128 121.655L31.4835 102.832L61.1558 54.4887L46.3491 30.3931L0 105.883L37.6696 145.996H50.1595L73.0577 121.655H49.1128Z" fill="black"/>
</svg>

<svg xmlns="http://www.w3.org/2000/svg" width="130" height="146" fill="none" viewBox="0 0 130 146"><path fill="#000" d="M64.987 0 50.215 24.142l48.337 78.694L58.083 146h34.248L130 105.887z"/><path fill="#000" d="m49.113 121.655-17.63-18.823 29.673-48.343-14.807-24.096L0 105.883l37.67 40.113h12.49l22.898-24.341z"/></svg>
